X:1
T:Title
%%score { ( 1 2 ) | ( 3 4 ) }
L:1/8
Q:1/4=100
M:4/4
K:Ab
V:1 treble nm="Grand Piano"
V:2 treble 
V:3 bass 
V:4 bass 
V:1
 [Ec]>B [Fd]>c [DB]>A [DEG]>F | z4 [CE]4 | [Ec]>B [Fd]>c [DB]>A [DEG]>F | z4 [EB]4 | %4
w: Thoro~Harris * * * * * * *||||
 [Ec]>B [Fd]>c [DB]>A A,->[A,F] | z4 [=Ec]4 | [GB]>A A,->[A,F] [CE]>e c>A | [B,d]>B G>E [CA]4 | %8
w: ||||
 c>c c>c c2 c2 | C>C =D>=E F4 | B>B B>B B2 B2 | B,>B, C>=D [E,G,E]4 | %12
w: ||||
 [Ec]>B [Fd]>c [DB]>A A,->[A,F] | z4 [CE]4 | %14
w: ||
[M:35/32] [B,DF]>[EG][B,FA]>[=EB][_Ec]>[Gf][Ae]/ A2- A/4 |[M:4/4] (3:2:2c3 B3 [CA]4 |] %16
w: ||
V:2
 z4 z2 A,2 | [CE]>F [A,C]>F z2 A,2 | z4 z2 A,2 | [=DF]>G A>c z2 [G,_D]2 | z4 z2 [DEG]2 | %5
 [CE]>[CE] [CA]>[FB] z2 [B,C]2 | z2 [DEG]2 z4 | x8 | x8 | x8 | x8 | x8 | z4 z2 [DEG]2 | %13
 [CE]>F C>F z2 [_G,A,]2 |[M:35/32] x35/4 |[M:4/4] x8 |] %16
V:3
 z z/ D/ z z/ E/ z z/ F/ z z/ D/ | z z/ D/ z z/ D/ A,,2 E,2 | z z/ D/ z z/ E/ z z/ F/ z z/ D/ | %3
 z z/ E/ [=DF]>D E,,2 E,2 | z z/ D/ z z/ E/ z z/ F/ z z/ D/ | A,,>C, F,>D, C,2 G,2 | %6
 z z/ F/ z z/ D/ z z/ E/ [CE]>C | z z/ F/ [DE]>D [A,,E,A,]4 | C>C C>C C2 C2 | %9
 [C,=E,]>[C,E,] [C,F,_C]>[C,G,B,] [F,A,]4 | B,>B, B,>B, B,2 B,2 | %11
 [B,,=D,]>[B,,D,] [B,,E,=A,]>[B,,F,_A,] z z/ _D,/ C,>B,, | z z/ E/ z z/ E/ z z/ F/ z z/ D/ | %13
 z z/ D/ z z/ _C/ A,,2 E,2 |[M:35/32] z3/2 B,/ z3/2 A,<[E,A,][_D,B,]/[C,C]/ [F,B,=D]2- [F,B,D]/4 | %15
[M:4/4] (3:2:2[E,A,E]3 [E,,E,G,D]3 [A,,A,]4 |] %16
V:4
 A,,2 [E,A,C]2 D,,2 D,2 | A,,2 E,2 z4 | A,,2 [E,A,C]2 D,,2 D,2 | B,,2 [F,A,]2 z4 | %4
 A,,2 [E,A,C]2 D,,2 D,2 | x8 | D,,2 D,2 A,,2 [E,A,]2 | E,,2 [E,B,]2 z4 | x8 | x8 | x8 | z4 E,,4 | %12
 A,,2 [E,A,C]2 D,,2 D,2 | A,,2 [E,A,]2 z4 |[M:35/32] D,2 =D,2 z4 z3/4 |[M:4/4] x8 |] %16

